X:1
T:Zeno, 87.87
T:Zeno, 87.87
T:Alexander B. Morton, 1912
T:Public Domain Courtesy of the Cyber Hymnal™
C:Alexander B. Morton, 1912
Z:Public Domain
Z:Courtesy of the Cyber Hymnal™
%%score ( 1 2 ) ( 3 4 )
L:1/8
Q:1/4=115
M:3/4
K:Ab
V:1 treble 
V:2 treble 
V:3 bass 
V:4 bass 
V:1
 (c2 B2) [EA]2 | [EG]4 [EA]2 | (B3 F) (GB) | [CA]2 [CE]2 z2 | ([DF]2 [Fd]2) [Ec]2 | [=DB]4 [DF]2 | %6
 ([DF]3 [CA]) (Bc) | [EB]6 | (c2 B2) [EA]2 | [EG]4 [EA]2 | (d3 c) (BA) | [Ec]2 [EB]2 z2 | %12
 (c2 e2) [_Ge]2 | ([Fd]3 [DF]) (cB) | [EA]4 [EG]2 | [EA]6 |] %16
V:2
 E4 x2 | x6 | E4 D2 | x6 | x6 | x6 | x4 E2 | x6 | E4 x2 | x6 | F4 F2 | x6 | E4 x2 | x4 F2 | x6 | %15
 x6 |] %16
V:3
 (A,2 D2) [A,,C]2 | [E,B,]4 [C,A,]2 | (G,3 B,) (B,G,) | [A,,A,]2 [A,,A,]2 z2 | [D,A,]4 [A,,A,]2 | %5
 [B,,F,]4 [B,,B,]2 | (B,3 A,) (G,A,) | [E,G,]6 | (A,2 D2) [A,,C]2 | [E,B,]4 [C,A,]2 | A,4 A,2 | %11
 [E,A,]2 [E,G,]2 z2 | (A,2 C2) [C,A,]2 | [D,A,]4 (A,B,) | [E,C]4 [E,D]2 | [A,,C]6 |] %16
V:4
 A,,4 x2 | x6 | B,,4 E,2 | x6 | x6 | x6 | E,4 E,2 | x6 | A,,4 x2 | x6 | (B,,3 C,) (D,=D,) | x6 | %12
 A,4 x2 | x4 D,2 | x6 | x6 |] %16

